X:18
T:Blind Man's Reel
M:4/4
K:F
L:1/8
fg |: "F" afc(f f)cfc | "Dm" d(f f)a gfed | "C" c2 gc bgeg | "F" fefg a2 fg |
"F" afc(f f)cfc | "Dm" d(f f)a gfed | "C" c2 gc bgeg | "F" fefg f a :|
|: cBA | "F" F2 F2 "Bb" GFDF | "F" CFAc dcAB | "C" c2 ce gece | "F" fefg afcA |
"F" F2 F2 "Bb" GFDF | "F" CFAc dcAB | "C" c2 ce gece | "F" fefg f a :|

